assets/img/Brands/linkedin-icon-1.svg

<svg width="33" height="33" viewBox="0 0 33 33" fill="none" xmlns="http://www.w3.org/2000/svg">
<g opacity="0.4" clip-path="url(#clip0_19_537)">
<rect width="32.5636" height="31.4143" transform="translate(0.0726929 0.886475)" fill="white" style="mix-blend-mode:color-burn"/>
<path d="M0.0726929 4.53572C0.0726929 3.47798 0.43941 2.60537 1.17281 1.91787C1.90622 1.23034 2.85967 0.886597 4.03312 0.886597C5.18564 0.886597 6.1181 1.22504 6.83057 1.902C7.56398 2.6001 7.93069 3.50971 7.93069 4.63091C7.93069 5.64632 7.57447 6.49248 6.862 7.16944C6.1286 7.86753 5.16468 8.21658 3.97026 8.21658H3.93883C2.78631 8.21658 1.85385 7.86753 1.14138 7.16944C0.428912 6.47134 0.0726929 5.59343 0.0726929 4.53572ZM0.481309 32.3008V11.1041H7.45921V32.3008H0.481309ZM11.3253 32.3008H18.3033V20.4649C18.3033 19.7245 18.3871 19.1533 18.5547 18.7514C18.8481 18.0322 19.2934 17.424 19.8906 16.9269C20.4878 16.4297 21.2369 16.1812 22.138 16.1812C24.4849 16.1812 25.6583 17.7783 25.6583 20.9726V32.3008H32.6362V20.1476C32.6362 17.0168 31.9028 14.6422 30.436 13.0239C28.9692 11.4056 27.0309 10.5964 24.6211 10.5964C21.9179 10.5964 19.812 11.7705 18.3033 14.1186V14.1821H18.2718L18.3033 14.1186V11.1041H11.3253C11.3672 11.7811 11.3882 13.8859 11.3882 17.4187C11.3882 20.9515 11.3672 25.9122 11.3253 32.3008Z" fill="black"/>
</g>
<defs>
<clipPath id="clip0_19_537">
<rect width="32.5636" height="31.4143" fill="white" transform="translate(0.0726929 0.886475)"/>
</clipPath>
</defs>
</svg>

<svg width="33" height="33" fill="none" xmlns="http://www.w3.org/2000/svg"><g opacity=".4" clip-path="url(#clip0_19_537)"><path fill="#fff" style="mix-blend-mode:color-burn" d="M.073.886h32.564V32.3H.073z"/><path d="M.073 4.536c0-1.058.366-1.93 1.1-2.618C1.906 1.23 2.86.887 4.033.887c1.153 0 2.085.338 2.798 1.015.733.698 1.1 1.608 1.1 2.729 0 1.015-.357 1.861-1.069 2.538-.733.699-1.697 1.048-2.892 1.048h-.03c-1.153 0-2.085-.35-2.798-1.048C.43 6.471.073 5.593.073 4.536zM.48 32.3V11.104h6.98v21.197H.481zm10.844 0h6.978V20.465c0-.74.084-1.312.252-1.714a4.6 4.6 0 011.336-1.824c.597-.497 1.346-.746 2.247-.746 2.347 0 3.52 1.597 3.52 4.792V32.3h6.978V20.148c0-3.131-.733-5.506-2.2-7.124-1.467-1.618-3.405-2.428-5.815-2.428-2.703 0-4.809 1.175-6.318 3.523v.063h-.031l.031-.063v-3.015h-6.978c.042.677.063 2.782.063 6.315 0 3.532-.02 8.493-.063 14.882z" fill="#000"/></g><defs><clipPath id="clip0_19_537"><path fill="#fff" transform="translate(.073 .886)" d="M0 0h32.564v31.414H0z"/></clipPath></defs></svg>
